svg/monochrome/bitcoin-alt.svg

<svg xmlns="http://www.w3.org/2000/svg" viewBox="0 0 24 24"><path class="uim-primary" d="M16.31256,11.2392A3.99779,3.99779,0,0,0,13,5V4a1,1,0,0,0-2,0V5H9V4A1,1,0,0,0,7,4V5H6A1,1,0,0,0,6,7H7V17H6a1,1,0,0,0,0,2H7v1a1,1,0,0,0,2,0V19h2v1a1,1,0,0,0,2,0V19h2a3.98966,3.98966,0,0,0,1.31256-7.7608ZM15,9a2.00229,2.00229,0,0,1-2,2H9V7h4A2.00229,2.00229,0,0,1,15,9Zm0,8H9V13h6a2,2,0,0,1,0,4Z"/></svg>

<svg xmlns="http://www.w3.org/2000/svg" viewBox="0 0 24 24"><path class="uim-primary" d="M16.313 11.24A3.998 3.998 0 0 0 13 5V4a1 1 0 0 0-2 0v1H9V4a1 1 0 0 0-2 0v1H6a1 1 0 0 0 0 2h1v10H6a1 1 0 0 0 0 2h1v1a1 1 0 0 0 2 0v-1h2v1a1 1 0 0 0 2 0v-1h2a3.99 3.99 0 0 0 1.313-7.76ZM15 9a2.002 2.002 0 0 1-2 2H9V7h4a2.002 2.002 0 0 1 2 2Zm0 8H9v-4h6a2 2 0 0 1 0 4Z"/></svg>
